packages/foundations/assets/icons/functional/images/transportation/bike_trailer_32_inverted.svg

<svg width="32" height="32" viewBox="0 0 32 32" fill="none" xmlns="http://www.w3.org/2000/svg">
<g clip-path="url(#clip0_2214_6654)">
<path fill-rule="evenodd" clip-rule="evenodd" d="M9.54838 20.14C10.653 20.14 11.5484 21.0355 11.5484 22.14C11.5484 23.2446 10.653 24.14 9.54838 24.14C8.44381 24.14 7.54838 23.2446 7.54838 22.14C7.54838 21.0355 8.44381 20.14 9.54838 20.14ZM7.49215 7.89984C7.9759 7.98287 9.51575 8.50475 12.1117 9.4655C14.2245 10.2035 16.1707 11.3513 17.8389 12.8432C19.6396 14.4538 21.1364 16.0118 22.3291 17.5197C22.5236 17.7656 22.5915 18.0885 22.5125 18.3919C22.1188 20.0713 21.8695 20.9998 21.7647 21.1773C21.0446 22.3971 20.1801 23.14 19.1062 23.14L13.452 23.017C14.0257 20.1093 11.7236 18.14 9.54838 18.14C7.37321 18.14 5.32325 19.9926 5.57476 22.6019C5.14855 22.5456 4.72452 22.4648 4.30584 22.3602C3.27296 22.102 2.54837 21.1739 2.54837 20.1093C2.52859 18.163 2.53668 17.1002 2.57267 16.921C2.902 15.4494 3.40475 13.2102 4.08092 10.2034C4.43092 8.64453 5.9356 7.64387 7.49215 7.89984ZM28.4622 19.4504C29.0145 19.4504 29.4622 19.8981 29.4622 20.4504C29.4622 21.0027 29.0145 21.4504 28.4622 21.4504C28.1388 21.4504 27.8363 21.4983 27.5199 21.6324C27.3089 21.7217 26.7029 22.0177 25.7019 22.5204C25.358 22.69 24.9855 22.7917 24.6046 22.8209C24.487 22.8268 24.2442 22.8297 23.876 22.8297C23.3237 22.8297 22.876 22.382 22.876 21.8297C22.876 21.3169 23.3081 20.8582 23.7593 20.8364C23.9505 20.8319 24.1558 20.8297 24.3752 20.8297C24.5282 20.8342 24.6756 20.7998 24.8175 20.7266L26.4586 19.9174C27.0818 19.6102 27.7674 19.4504 28.4622 19.4504ZM6.00589 11.0075L5.34756 13.9207C5.22706 14.4597 5.5663 14.9943 6.10528 15.1148C6.60576 15.2267 7.10248 14.9421 7.26736 14.4694L7.79747 12.132L11.0608 13.2788C12.1086 13.6468 13.0867 14.1864 13.9557 14.8746L15.4377 16.1406C15.856 16.5012 16.4874 16.4544 16.848 16.0361C17.1809 15.65 17.1666 15.0823 16.8334 14.7136L15.5823 13.6248C14.55 12.7349 13.3745 12.0281 12.1066 11.5337C9.95362 10.7648 8.50434 10.2571 7.7588 10.0104C6.99789 9.84028 6.24278 10.281 6.00589 11.0075Z" fill="#1A1C1F"/>
</g>
<defs>
<clipPath id="clip0_2214_6654">
<rect width="32" height="32" fill="white"/>
</clipPath>
</defs>
</svg>

<svg xmlns="http://www.w3.org/2000/svg" width="32" height="32" fill="none"><g clip-path="url(#a)"><path fill="#1A1C1F" fill-rule="evenodd" d="M9.548 20.14a2 2 0 1 1 0 4 2 2 0 0 1 0-4M7.492 7.9q.726.125 4.62 1.566a17 17 0 0 1 5.727 3.377q2.7 2.415 4.49 4.677a1 1 0 0 1 .183.872q-.59 2.52-.747 2.785c-.72 1.22-1.585 1.963-2.659 1.963l-5.654-.123c.574-2.908-1.728-4.877-3.904-4.877a4.015 4.015 0 0 0-3.973 4.462q-.64-.084-1.27-.242a2.32 2.32 0 0 1-1.757-2.25q-.03-2.92.025-3.189.494-2.207 1.508-6.718A3 3 0 0 1 7.492 7.9m20.97 11.55a1 1 0 1 1 0 2c-.323 0-.626.048-.942.182q-.316.135-1.818.888c-.344.17-.717.272-1.097.3q-.176.01-.729.01a1 1 0 0 1-1-1c0-.513.432-.972.883-.994q.288-.006.616-.006.23.006.442-.103l1.642-.81a4.5 4.5 0 0 1 2.003-.467M6.006 11.008l-.658 2.913a1 1 0 0 0 1.92.548l.53-2.337 3.263 1.147a10 10 0 0 1 2.895 1.596l1.482 1.266a1 1 0 0 0 1.395-1.427l-1.25-1.09a12 12 0 0 0-3.476-2.09 242 242 0 0 0-4.348-1.524 1.5 1.5 0 0 0-1.753.998" clip-rule="evenodd"/></g><defs><clipPath id="a"><path fill="#fff" d="M0 0h32v32H0z"/></clipPath></defs></svg>
